X:1
T:Title
%%score { 1 | 2 }
L:1/8
Q:1/4=100
M:4/4
K:Ab
V:1 treble nm="Grand Piano"
V:2 bass 
V:1
 c3 e dc B>c | [CA]4 [CE]4 | F3 A E2 A2 | [GB]6 z2 | c3 e dc[DB][CA] | A4 F4 | E3 A B2 c2 | %7
w: J.~Howard~Entwisle * * * * *|||||||
 [CA]6 z2 | c2 c>d e3 c | A2 c2 [Ac] [GB]3 | [Bd]3 [Bd] [Bd][Ac] [GB]2 | c6 z2 | %12
w: |||||
 e3 d [Ec][DB] [CA]>E | G4 F4 | E3 A B2 c2 |[M:8/4] [CA]8 z8 |] %16
w: ||||
V:2
 [A,E]3 [A,CE] [A,B,E][A,E] [E,G,D]>[E,G,E] | [A,,A,]4 [A,,A,]4 | [D,A,D]3 [F,A,D] [A,C]2 [A,CE]2 | %3
 [E,E]6 z2 | [A,EA]3 [A,CA][K:bass] [A,B,E][A,E][A,,E,][A,,E,] | [D,F,D]4 [D,A,D]4 | %6
 [E,A,C]3 [E,A,C] [E,G,D]2 [E,G,E]2 | [A,,A,]6 z2 | [A,E]2 [A,E]>[A,B,E] [A,CA]3 [A,EA] | %9
 [CE]2 [A,EA]2[K:bass] [E,E] [E,E]3 | [E,E]3 [E,E] [E,E]2 [E,E]2 | [A,EA]6 z2 | %12
 [A,CE]3 [A,B,E] [A,,A,][A,,E,] [A,,E,]>[C,A,] | [D,A,E]4 [D,A,D]4 | %14
 [E,A,C]3 [E,A,C] [E,G,D]2 [E,G,E]2 |[M:8/4] [A,,A,]8 z8 |] %16

